symbols/be/PVA-{10}.svg

<?xml version="1.0" encoding="UTF-8" standalone="no"?>
<!-- Initially created with Inkscape, optimized by hand -->

<svg
   version="1.1"
   width="20"
   height="17.320995"
   id="svg1"
   xmlns="http://www.w3.org/2000/svg"
   xmlns:svg="http://www.w3.org/2000/svg">
  <defs
     id="defs1" />
  <path
     id="Fond"
     d="M 20,-1.2580566e-6 H 3.1098633e-6 L 10.000003,17.320999 Z"
     fill="#edd827"
     style="stroke-width:0.1" />
  <path
     d="m 11.064736,9.2268437 v -6.389353 c 0,-0.106667 -0.032,-0.192001 -0.106667,-0.266668 -0.064,-0.07467 -0.362667,-0.149334 -0.501334,-0.01067 l -1.4293379,1.429337 c -0.149334,0.149334 -0.096,0.426668 0.01067,0.533335 0.096,0.106667 0.352001,0.128001 0.490669,-0.01067 l 0.8213359,-0.832003 v 5.557351 c 0,0.192001 0.170667,0.352001 0.362667,0.352001 0.192001,0 0.352001,-0.16 0.352001,-0.362668 z"
     id="text1"
     style="font-size:10.6667px;font-family:Isonorm;-inkscape-font-specification:'Isonorm, Normal';fill-rule:evenodd;stroke-width:0.08"
     aria-label="1" />
</svg>

<?xml version="1.0" encoding="UTF-8"?>
<svg xmlns="http://www.w3.org/2000/svg" xmlns:xlink="http://www.w3.org/1999/xlink" width="20" height="17.320995" viewBox="0 0 20 17.320995">
<path fill-rule="nonzero" fill="rgb(92.941176%, 84.705882%, 15.294118%)" fill-opacity="1" d="M 20 0 L 0 0 L 10 17.320312 Z M 20 0 "/>
<path fill-rule="evenodd" fill="rgb(0%, 0%, 0%)" fill-opacity="1" d="M 11.066406 9.226562 L 11.066406 2.835938 C 11.066406 2.730469 11.03125 2.644531 10.957031 2.570312 C 10.894531 2.496094 10.59375 2.421875 10.457031 2.558594 L 9.027344 3.988281 C 8.878906 4.140625 8.929688 4.417969 9.039062 4.523438 C 9.132812 4.628906 9.390625 4.652344 9.527344 4.511719 L 10.351562 3.679688 L 10.351562 9.238281 C 10.351562 9.429688 10.519531 9.589844 10.710938 9.589844 C 10.90625 9.589844 11.066406 9.429688 11.066406 9.226562 Z M 11.066406 9.226562 "/>
</svg>
